!!!COM: Anonymous
!!!CDT: fl. XV c.
!!!OTL: Angelus ad Virginem missus
!!!TXO: Latin
!!!ODT: XV c. 
!!!voices: 3
!!!pag: 
!!!EFL: 
!!!YEM: Creative Commons CC/BY/NC/SA 4.0
!!!ENC: Marcin Konik
!!!END: 2015-05-05
!!!EED: Marcin Konik
!!!EEV: 
!!!ONB: Encoded in vim by Marcin Konik
!!!CharacterEncoding: utf-8
!!!RDF**kern: l=long note in original notation
!!!RDF**kern: i=editorial accidental
!!!RDF**kern: > = above
!!!RDF**kern: < = below
!!muse2ps: z14jc180F
!!title: @{OTL}, ed. @{ENC}
**kern	**kern	**kern
*part3	*part2	*part1
*staff3	*staff2	*staff1
*clefGv2	*clefGv2	*clefG2
*k[f#]	*k[f#]	*k[f#]
*M2/1	*M2/1	*M2/1
=1-	=1-	=1-
2A	2A	2a
2A	2A	2a
2E	2e	2b
2E	2e	2cc
=2	=2	=2
2B	2d	2dd
2B	2d	2b
1E	1e	1cc
=3	=3	=3
1A	1c	2.ee
.	.	4dd
2F	2A	4cc
.	.	4b
2E	1G	2cc
=4	=4	=4
2G	.	2b
2A	2c	2.a
1E	1B	.
.	.	4g#
.	.	4g#
.	.	4f#
=5	=5	=5
*M3/2	*M3/2	*M3/2
1.e	1.A	1.a
=6	=6	=6
*M2/1	*M2/1	*M2/1
2A	2A	2a
2A	2A	2a
2E	2e	2b
2E	2e	2cc
=7	=7	=7
2B	2d	2dd
2B	2d	2b
1E	1e	1cc
=8	=8	=8
1A	1c	2.ee
.	.	4dd
2A	2A	2b
2E	2G	2cc
=9	=9	=9
2G	2G	2b
2A	2c	1a
1E	1B	.
.	.	2g#
=10	=10	=10
*M3/2	*M3/2	*M3/2
1.e	1.A	1.a
=11	=11	=11
*M2/1	*M2/1	*M2/1
2f#	2d	2b
2f#	2d	2b
2d	2B	2dd
2d	2B	2dd
=12	=12	=12
2B	2G	2b
2B	2G	2b
2A	2c	2a
2F#	2c	2a
=13	=13	=13
2G	2B	2g
2E	2G	1g
1D	1A	.
.	.	2f#
=14	=14	=14
*M3/2	*M3/2	*M3/2
1.d	1.G	1.g
=15	=15	=15
*M2/1	*M2/1	*M2/1
2A	2c	2a
2A	2c	2a
2G	2d	2b
2F#	2d	2b
=16	=16	=16
2E	2e	2cc
2E	2e	2cc
1E	1g	1ee
=17	=17	=17
1A	1e	2.gg
.	.	4ff#
2A	2c	4ee
.	.	4dd
2E	1e	2.cc
=18	=18	=18
2G	.	.
.	.	4b
2A	2c	2.a
1E	1B	.
.	.	4g#
.	.	4g#
.	.	4f#
=19	=19	=19
0e	0A	0a
==	==	==
*-	*-	*-
